modules/linearicons/icons/question-circle.svg

<?xml version="1.0" encoding="utf-8"?>
<!-- Generated by IcoMoon.io -->
<!DOCTYPE svg PUBLIC "-//W3C//DTD SVG 1.1//EN" "http://www.w3.org/Graphics/SVG/1.1/DTD/svg11.dtd">
<svg version="1.1" xmlns="http://www.w3.org/2000/svg" xmlns:xlink="http://www.w3.org/1999/xlink" width="20" height="20" viewBox="0 0 20 20">
<path fill="#000000" d="M16.218 3.782c-1.794-1.794-4.18-2.782-6.718-2.782s-4.923 0.988-6.718 2.782-2.782 4.18-2.782 6.717 0.988 4.923 2.782 6.718 4.18 2.782 6.718 2.782 4.923-0.988 6.718-2.782 2.782-4.18 2.782-6.718-0.988-4.923-2.782-6.717zM9.5 19c-4.687 0-8.5-3.813-8.5-8.5s3.813-8.5 8.5-8.5c4.687 0 8.5 3.813 8.5 8.5s-3.813 8.5-8.5 8.5z"></path>
<path fill="#000000" d="M9.5 15c-0.276 0-0.5-0.224-0.5-0.5v-2c0-0.276 0.224-0.5 0.5-0.5 1.93 0 3.5-1.57 3.5-3.5s-1.57-3.5-3.5-3.5-3.5 1.57-3.5 3.5c0 0.276-0.224 0.5-0.5 0.5s-0.5-0.224-0.5-0.5c0-2.481 2.019-4.5 4.5-4.5s4.5 2.019 4.5 4.5c0 2.312-1.753 4.223-4 4.472v1.528c0 0.276-0.224 0.5-0.5 0.5z"></path>
<path fill="#000000" d="M9.5 18c-0 0 0 0 0 0-0.276 0-0.5-0.224-0.5-0.5v-1c0-0.276 0.224-0.5 0.5-0.5 0 0 0 0 0 0 0.276 0 0.5 0.224 0.5 0.5v1c0 0.276-0.224 0.5-0.5 0.5z"></path>
</svg>

<svg xmlns="http://www.w3.org/2000/svg" width="20" height="20"><path d="M16.218 3.782C14.424 1.988 12.038 1 9.5 1s-4.923.988-6.718 2.782S0 7.962 0 10.499s.988 4.923 2.782 6.718 4.18 2.782 6.718 2.782 4.923-.988 6.718-2.782S19 13.037 19 10.499s-.988-4.923-2.782-6.717zM9.5 19C4.813 19 1 15.187 1 10.5S4.813 2 9.5 2c4.687 0 8.5 3.813 8.5 8.5S14.187 19 9.5 19z"/><path d="M9.5 15a.5.5 0 0 1-.5-.5v-2a.5.5 0 0 1 .5-.5c1.93 0 3.5-1.57 3.5-3.5S11.43 5 9.5 5 6 6.57 6 8.5a.5.5 0 0 1-1 0C5 6.019 7.019 4 9.5 4S14 6.019 14 8.5a4.506 4.506 0 0 1-4 4.472V14.5a.5.5 0 0 1-.5.5zM9.5 18a.5.5 0 0 1-.5-.5v-1a.5.5 0 0 1 1 0v1a.5.5 0 0 1-.5.5z"/></svg>
